!!!!SEGMENT: pl-cz--i-33--001_haydn-joseph--partita-es-moderato.krn
!!!cenid: 17xx:2177
!!!COM: Haydn, Joseph
!!!COM-rismID: pe55803
!!!CDT: 1732/03/31-1809/05/31
!!!CNT: Austrian
!!!OPR: Partita Es
!!!OTL: Moderato
!!!OMV: 001
!!!PDT:
!!!AGN: Secular
!!!SMS-siglum: PL-CZ
!!!SMS-shelfmark: I-33
!!!SMS-shelfwork: 001-001 M
!!!SMS-variant:
!!!SMS-altvar:
!!!NIFC-rismSourceID: 300000454
!!!NIFC-rismChildID: 300000454
!!!NIFC-islandoraID: pl-cz:2113
!!!URL-pdf-islandora: https://repozytorium.nifc.pl/islandora/object/pl-cz%3A2113/datastream/PDF/view
!!!URL-scan: https://polish.musicsources.pl/pl/lokalizacje/galeria/rekopisy/625 @EN{Scan on Polish Music Sources Website} @PL{Skany w portalu Dziedzictwo Muzyki Polskiej w otwartym dostępie}
!!!IIIF:
!!!ONB-nifc: UWAGA: części Partity: 1. Moderato, 2. Menuetto, 3. Adagio, 4. Presto
!!!AIN: 2 clars 2 empty 1 fagot
!!!key:
**kern	**dynam	**kern	**dynam	**kern	**dynam	**kern	**dynam	**kern	**dynam
*part5	*part5	*part4	*part4	*part3	*part3	*part2	*part2	*part1	*part1
*staff5	*	*staff4	*	*staff3	*	*staff2	*	*staff1	*
*group2	*	*group2	*	*group1	*	*group1	*	*group1	*
*Iempty	*	*Iempty	*	*Ifagot	*	*Iclars	*	*Iclars	*
*I"Cornuo 2do in Dis	*	*I"Cornuo Primo in Dis	*	*I"Fagotto	*	*I"Clarinetto Secundo	*	*I"Clarinetto Primo	*
*I'cor 2	*	*I'cor 1	*	*I'fg	*	*I'cl 2	*	*I'cl 1	*
*>[A,A1,A,A2,B,B]	*>[A,A1,A,A2,B,B]	*>[A,A1,A,A2,B,B]	*>[A,A1,A,A2,B,B]	*>[A,A1,A,A2,B,B]	*>[A,A1,A,A2,B,B]	*>[A,A1,A,A2,B,B]	*>[A,A1,A,A2,B,B]	*>[A,A1,A,A2,B,B]	*>[A,A1,A,A2,B,B]
*>A	*>A	*>A	*>A	*>A	*>A	*>A	*>A	*>A	*>A
*clefG2	*	*clefG2	*	*clefF4	*	*clefG2	*	*clefG2	*
*ITrd5c9	*	*ITrd5c9	*	*	*	*ITrd1c2	*	*ITrd1c2	*
*k[b-e-a-]	*	*k[b-e-a-]	*	*k[e-b-a-]	*	*k[b-e-a-]	*	*k[b-e-a-]	*
*E-:	*	*E-:	*	*E-:	*	*E-:	*	*E-:	*
*M4/4	*	*M4/4	*	*M4/4	*	*M4/4	*	*M4/4	*
*met(c)	*	*met(c)	*	*met(c)	*	*met(c)	*	*met(c)	*
!LO:TX:a:Bi:t=moderato\nallo	!	!LO:TX:a:Bi:t=allo Modo	!	!LO:TX:a:Bi:t=Moderato	!	!LO:TX:a:Bi:t=Moderato	!	!LO:TX:a:Bi:t=Moderato	!
4r	.	4r	.	4r	.	4b-\	.	4b-\	.
=1	=1	=1	=1	=1	=1	=1	=1	=1	=1
!	!	!	!	!	!LO:DY:a	!	!	!	!
4G/	.	4e-\	.	4E-\	f	8g\L	.	8ee-\L	.
.	.	.	.	.	.	8b-\	.	8gg\	.
4B-/	.	4f\	.	4BB-/	.	8a-\	.	8ff\	.
.	.	.	.	.	.	8f\J	.	8dd\J	.
4e-\	.	4g\	.	4EE-/	.	8g\L	.	8ee-\L	.
.	.	.	.	.	.	8b-\	.	8gg\	.
4B-/	.	4f\	.	4BB-/	.	8a-\	.	8ff\	.
.	.	.	.	.	.	8f\J	.	8dd\J	.
=2	=2	=2	=2	=2	=2	=2	=2	=2	=2
4G/	.	8e-\L	.	4E-\	.	8g\L	.	8ee-\L	.
.	.	8g\J	.	.	.	8b-\J	.	8gg\J	.
*2\right	*	*2\right	*	*	*	*2\right	*	*2\right	*
2g\	.	2b-\	.	4EE-/	.	2g\	.	2b-\	.
.	.	.	.	4GG/	.	.	.	.	.
4f\	.	4a-\	.	4BB-/	.	4f/	.	4a-\	.
=3	=3	=3	=3	=3	=3	=3	=3	=3	=3
4e-\	.	4g\	.	4r	.	8e-/L	.	8g\L	.
.	.	.	.	.	.	8g/J	.	8b-\J	.
2e-\	.	2g\	.	4EE-/	.	2B-/	.	2g/	.
.	.	.	.	4GG/	.	.	.	.	.
4B-/	.	4f\	.	4BB-/	.	4A-/	.	4f/	.
=4	=4	=4	=4	=4	=4	=4	=4	=4	=4
4G/	.	4e-\	.	4EE-/	.	8G/L	.	8e-/L	.
.	.	.	.	.	.	8c/J	.	8g/J	.
4r	.	4r	.	4r	.	2B-/	.	2B-/	.
4r	.	4r	.	2r	.	.	.	.	.
4B-/	.	4f\	.	.	.	4F/	.	4A-/	.
=5	=5	=5	=5	=5	=5	=5	=5	=5	=5
!	!	!	!	!LO:TX:t=P:problem=brak taktu nr 5	!	!	!	!	!
2G/	.	2e-\	.	1ryy	.	8E-/L	.	8G/L	.
.	.	.	.	.	.	8G/	.	8B-/	.
.	.	.	.	.	.	8B-/	.	8e-/	.
.	.	.	.	.	.	8e-/J	.	8g/J	.
2r	.	2r	.	.	.	8g\L	.	8b-\L	.
.	.	.	.	.	.	8b-\	.	8ee-\	.
.	.	.	.	.	.	8ee-\	.	8gg\	.
.	.	.	.	.	.	8gg\J	.	8bb-\J	.
!	!	!	!	!	!	!LO:LB:g=original	!	!	!
=6	=6	=6	=6	=6	=6	=6	=6	=6	=6
2g\	.	2b-\	.	4r	.	2gg\	.	2bb-\	.
.	.	.	.	4E-\	.	.	.	.	.
.	.	.	.	.	.	8qqgg/	.	8qqbb-/	.
4f\	.	4a-\	.	4F\	.	4ff\	.	4aa-\	.
8e-\L	.	8g\L	.	4BB-/	.	8ee-\L	.	8gg\L	.
8f\J	.	8a-\J	.	.	.	8ff\J	.	8aa-\J	.
!	!	!	!	!	!	!	!	!LO:LB:g=original	!
=7	=7	=7	=7	=7	=7	=7	=7	=7	=7
!	!	!LO:SIC:v:s=2g\	!	!	!	!	!	!	!
2e-\	.	2f\	.	4E-\	.	2ee-\	.	2gg\	.
.	.	.	.	4BB-/	.	.	.	.	.
2r	.	2r	.	4EE-/	.	4r	.	4r	.
.	.	.	.	4r	.	4g/	.	4ee-\	.
=8	=8	=8	=8	=8	=8	=8	=8	=8	=8
!	!LO:DY:a	!	!LO:DY:a	!	!LO:DY:a	!	!	!LO:TX:a:i:t=dol	!
1E-	p	1e-	p	4r	p	4g/	.	8ee-\L	.
.	.	.	.	.	.	.	.	8dd-X\J	.
.	.	.	.	4E-\	.	2b-\	.	2dd-\	.
.	.	.	.	4G\	.	.	.	.	.
.	.	.	.	4A-\	.	4a-\	.	4cc\	.
=9	=9	=9	=9	=9	=9	=9	=9	=9	=9
1E-	.	1e-	.	4r	.	8cc\L	.	8ee-\L	.
.	.	.	.	.	.	8a-\J	.	8cc\J	.
.	.	.	.	4AA-/	.	2a-\	.	2cc\	.
.	.	.	.	4E-\	.	.	.	.	.
.	.	.	.	4EE-/	.	4g/	.	4b-\	.
!	!	!	!	!LO:LB:g=original	!	!	!	!	!
=10	=10	=10	=10	=10	=10	=10	=10	=10	=10
!	!LO:DY:a:t=fo	!	!	!	!	!	!	!	!LO:DY:a
2B-\	f	2f\	.	4r	.	4f/	.	4a-\	f
!	!	!	!	!	!	!	!	!LO:TX:t=P:problem=mixed beam	!
.	.	.	.	4BB-\	.	8a-/L	.	8ff\L	.
.	.	.	.	.	.	8f/J	.	8a-/J	.
2e-\	.	2g\	.	4E-\	.	4e-/	.	4g/	.
!	!	!	!	!	!	!	!	!LO:TX:t=P:problem=mixed beam	!
.	.	.	.	4EE-/	.	8g/L	.	8ee-\L	.
.	.	.	.	.	.	8e-/J	.	8g/J	.
=11	=11	=11	=11	=11	=11	=11	=11	=11	=11
!	!	!	!LO:DY:a	!	!	!	!	!	!
4e-\	.	4g\	f	4BB-/	.	4e-/	.	4g/	.
4B-/	.	4f\	.	4B-\	.	4d/	.	4f/	.
2r	.	2r	.	4BB-/	.	4r	.	4r	.
.	.	.	.	4r	.	4f/	.	4f/	.
!LO:LB:g=original	!	!	!	!	!	!	!	!	!
=12	=12	=12	=12	=12	=12	=12	=12	=12	=12
!LO:TX:a:t=1.	!	!LO:TX:a:t=1.	!	!	!	!	!	!	!
1r	.	1r	.	4r	.	2d/	.	2b-\	.
.	.	.	.	4B-\	.	.	.	.	.
.	.	.	.	4BB-/	.	4f/	.	2dd\	.
.	.	.	.	4B-\	.	8b-\L	.	.	.
.	.	.	.	.	.	8cc\J	.	.	.
=13	=13	=13	=13	=13	=13	=13	=13	=13	=13
*	*	*	*	*	*	*	*	*Xtuplet	*
4B-/	.	4f\	.	2BB-/	.	4dd\	.	12ff\L	.
.	.	.	.	.	.	.	.	12gg\	.
.	.	.	.	.	.	.	.	12ff\J	.
4r	.	4r	.	.	.	4r	.	8ff\L	.
.	.	.	.	.	.	.	.	8ff\J	.
*	*	*	*	*tremolo	*	*	*	*tremolo	*
2r	.	2r	.	2r	.	2r	.	8ff\L	.
.	.	.	.	.	.	.	.	8ff\	.
.	.	.	.	.	.	.	.	8ff\	.
.	.	.	.	.	.	.	.	8ff\J	.
*	*	*	*	*Xtremolo	*	*	*	*Xtremolo	*
=14	=14	=14	=14	=14	=14	=14	=14	=14	=14
!LO:TX:a:t=1.	!	!	!	!LO:TUP:a:problem=łuczek zamiast numeru	!	!LO:TUP:a:problem=klamra łukowa, łuczek zamiast numeru	!	!	!
1r	.	1e-	.	12An\L	.	12cc\L	.	1ff	.
.	.	.	.	12B-\	.	12dd\	.	.	.
.	.	.	.	12A\J	.	12cc\J	.	.	.
.	.	.	.	8A\L	.	8cc|\L	.	.	.
.	.	.	.	8A\J	.	8cc|\J	.	.	.
!	!	!	!	!	!	!LO:LB:g=original	!	!	!
*	*	*	*	*2\right	*	*	*	*	*
*	*	*	*	*tremolo	*	*tremolo	*	*	*
.	.	.	.	8A\L	.	8cc|\L	.	.	.
.	.	.	.	8A\	.	8cc|\	.	.	.
.	.	.	.	8A\	.	8cc|\	.	.	.
.	.	.	.	8A\J	.	8cc|\J	.	.	.
*	*	*	*	*Xtremolo	*	*Xtremolo	*	*	*
=15	=15	=15	=15	=15	=15	=15	=15	=15	=15
!	!	!LO:TX:a:t=1.	!	!	!	!	!	!	!
4B-/	.	1r	.	4B-\	.	4dd\	.	12ff\L	.
.	.	.	.	.	.	.	.	12gg\	.
.	.	.	.	.	.	.	.	12ff\J	.
4r	.	.	.	4r	.	4r	.	8ff\L	.
.	.	.	.	.	.	.	.	8ff\J	.
!	!	!	!	!	!	!	!	!LO:LB:g=original	!
*	*	*	*	*	*	*	*	*tremolo	*
!	!	!	!	!	!	!	!	!LO:TX:a:t=....	!
2r	.	.	.	2r	.	2r	.	8ff'\L	.
.	.	.	.	.	.	.	.	8ff'\	.
.	.	.	.	.	.	.	.	8ff'\	.
.	.	.	.	.	.	.	.	8ff'\J	.
*	*	*	*	*	*	*	*	*Xtremolo	*
=16	=16	=16	=16	=16	=16	=16	=16	=16	=16
*	*	*	*	*Xtuplet	*	*	*	*	*
!LO:TX:a:t=1.	!	!	!	!	!	!LO:TUP:a:problem=klamra łukowa, łuczek zamiast numeru	!	!	!
1r	.	1e-	.	12An\L	.	12cc\L	.	1ff	.
.	.	.	.	12B-\	.	12dd\	.	.	.
.	.	.	.	12A\J	.	12cc\J	.	.	.
.	.	.	.	8A\L	.	8cc\L	.	.	.
.	.	.	.	8A\J	.	8cc\J	.	.	.
*	*	*	*	*tremolo	*	*tremolo	*	*	*
!	!	!	!	!	!	!LO:TX:a:t=....	!	!	!
.	.	.	.	8A\L	.	8cc'\L	.	.	.
.	.	.	.	8A\	.	8cc'\	.	.	.
.	.	.	.	8A\	.	8cc'\	.	.	.
.	.	.	.	8A\J	.	8cc'\J	.	.	.
*	*	*	*	*Xtremolo	*	*Xtremolo	*	*	*
!	!	!LO:LB:g=original	!	!	!	!	!	!	!
=17	=17	=17	=17	=17	=17	=17	=17	=17	=17
4B-/	.	4r	.	4B-\	.	4dd\	.	12ff\L	.
.	.	.	.	.	.	.	.	12gg\	.
.	.	.	.	.	.	.	.	12ff\J	.
4B-/	.	4f\	.	4BB-/	.	4dd\	.	8ff\L	.
.	.	.	.	.	.	.	.	8ff\J	.
4B-/	.	4f\	.	4D/	.	4b-\	.	8bb-\L	.
.	.	.	.	.	.	.	.	8ff\	.
4B-/	.	4f\	.	4D/	.	4b-\	.	8dd\	.
.	.	.	.	.	.	.	.	8b-\J	.
=18	=18	=18	=18	=18	=18	=18	=18	=18	=18
1e-	.	1g	.	4E-\	.	4b-\	.	4g/	.
.	.	.	.	4E-\	.	4b-\	.	4gg\	.
.	.	.	.	4E-\	.	8b-\L	.	8gg\L	.
.	.	.	.	.	.	8g\	.	8ee-\	.
.	.	.	.	4E-\	.	8f\	.	8dd\	.
.	.	.	.	.	.	8e-\J	.	8b-\J	.
=19	=19	=19	=19	=19	=19	=19	=19	=19	=19
!	!	!	!	!LO:TX:t=P:problem=mixed beam	!	!	!	!	!
4f\	.	4f\	.	8F\L	.	4d/	.	2f/	.
.	.	.	.	8FF/	.	.	.	.	.
4f\	.	4f\	.	8F\	.	2b-\	.	.	.
.	.	.	.	8FF/J	.	.	.	.	.
!	!	!	!	!LO:LB:g=original	!	!	!	!	!
*	*	*	*	*tremolo	*	*	*	*	*
!	!	!	!	!LO:TX:t=P:problem=mixed beam	!	!	!	!	!
4f\	.	4f\	.	8FF/L	.	.	.	2ccT\	.
.	.	.	.	8F\	.	.	.	.	.
4f\	.	4f\	.	8FF/	.	4a\	.	.	.
.	.	.	.	8F\J	.	.	.	.	.
*	*	*	*	*Xtremolo	*	*	*	*	*
=20	=20	=20	=20	=20	=20	=20	=20	=20	=20
!	!	!LO:SIC:v:s=2d\	!	!	!	!	!	!	!
2B-/	.	2e-\	.	2BB-/	.	2b-\	.	2b-\	.
2r	.	2rg	.	2r	.	4r	.	4r	.
!	!	!	!	!	!	!	!LO:DY:a:t=p.	!	!LO:DY:a
.	.	.	.	.	.	4d/	p	8f\L	p
.	.	.	.	.	.	.	.	8b-\J	.
=21	=21	=21	=21	=21	=21	=21	=21	=21	=21
!	!	!LO:TX:a:t=1	!	!	!LO:DY:a	!	!	!	!
1r	.	1f	.	1F	p	8d/L	.	8b-\L	.
.	.	.	.	.	.	8c/	.	8a\	.
.	.	.	.	.	.	8c/	.	8a\	.
.	.	.	.	.	.	8e-/J	.	8cc\J	.
.	.	.	.	.	.	8e-/L	.	8cc\L	.
.	.	.	.	.	.	8d/	.	8b-\	.
.	.	.	.	.	.	8d/	.	8b-\	.
.	.	.	.	.	.	8b-/J	.	8dd\J	.
=22	=22	=22	=22	=22	=22	=22	=22	=22	=22
!	!	!LO:TX:a:t=2	!	!	!	!	!	!	!
1r	.	1f	.	1F	.	8b-\L	.	8dd\L	.
.	.	.	.	.	.	8a\	.	8cc\	.
.	.	.	.	.	.	8a\	.	8cc\	.
.	.	.	.	.	.	8cc\J	.	8ee-\J	.
!	!	!	!	!	!	!LO:LB:g=original	!	!	!
.	.	.	.	.	.	8cc\L	.	8ee-\L	.
.	.	.	.	.	.	8b-\	.	8dd\	.
.	.	.	.	.	.	8b-\	.	8dd\	.
.	.	.	.	.	.	8dd\J	.	8ff\J	.
!	!	!	!	!	!	!	!	!LO:LB:g=original	!
=23	=23	=23	=23	=23	=23	=23	=23	=23	=23
!	!	!LO:TX:a:t=3	!	!	!	!	!	!	!
1r	.	1f	.	1F	.	8dd\L	.	8ff\L	.
.	.	.	.	.	.	8cc\	.	8ee-\	.
.	.	.	.	.	.	8cc\	.	8ee-\	.
.	.	.	.	.	.	8ee-\J	.	8gg\J	.
.	.	.	.	.	.	8ee-\L	.	8gg\L	.
.	.	.	.	.	.	8dd\	.	8ff\	.
.	.	.	.	.	.	8dd\	.	8ff\	.
.	.	.	.	.	.	8cc\J	.	8aa\J	.
=24	=24	=24	=24	=24	=24	=24	=24	=24	=24
*	*	*	*	*tremolo	*	*	*	*	*
!	!LO:DY:a:t=fo	!LO:TX:a:t=4	!	!LO:TX:t=P:problem=mixed beam	!	!	!	!	!
2B-/	f	1f	.	8BB-/L	.	2dd\	.	1bb-	.
.	.	.	.	8B-\	.	.	.	.	.
.	.	.	.	8BB-/	.	.	.	.	.
.	.	.	.	8B-\J	.	.	.	.	.
2B-/	.	.	.	8D\L	.	2ff\	.	.	.
.	.	.	.	8B-/	.	.	.	.	.
.	.	.	.	8D\	.	.	.	.	.
.	.	.	.	8B-/J	.	.	.	.	.
=25	=25	=25	=25	=25	=25	=25	=25	=25	=25
2e-\	.	2g\	.	8E-\L	.	2ee-\	.	2gg\	.
.	.	.	.	8B-\	.	.	.	.	.
.	.	.	.	8E-\	.	.	.	.	.
.	.	.	.	8B-\J	.	.	.	.	.
!	!	!	!	!LO:TX:t=P:problem=mixed beam	!	!	!	!	!
2e-\	.	2g\	.	8EE-/L	.	2f/	.	2ee-\	.
.	.	.	.	8E-\	.	.	.	.	.
.	.	.	.	8EE-/	.	.	.	.	.
.	.	.	.	8E-\J	.	.	.	.	.
*	*	*	*	*Xtremolo	*	*	*	*	*
=26	=26	=26	=26	=26	=26	=26	=26	=26	=26
4e-\	.	4g\	.	4EE-/	.	4g/	.	16cc\LL	.
.	.	.	.	.	.	.	.	16bX\	.
.	.	.	.	.	.	.	.	16cc\	.
.	.	.	.	.	.	.	.	16dd\JJ	.
4r	.	4r	.	4r	.	4r	.	16ee-\LL	.
.	.	.	.	.	.	.	.	16dd\	.
.	.	.	.	.	.	.	.	16ee-\	.
.	.	.	.	.	.	.	.	16ff\JJ	.
*	*	*	*	*tremolo	*	*	*	*	*
!	!	!	!	!LO:TX:t=P:problem=mixed beam	!	!	!	!	!
2r	.	2r	.	8EE-/L	.	8e-/L	.	8gg\L	.
.	.	.	.	8E-\	.	8g/	.	8ee-\	.
.	.	.	.	8EE-/	.	8f/	.	8dd\	.
.	.	.	.	8E-\J	.	8e-/J	.	8cc\J	.
=27	=27	=27	=27	=27	=27	=27	=27	=27	=27
!	!	!	!	!LO:TX:t=P:problem=mixed beam	!	!	!	!	!
4f\	.	4f\	.	8FF/L	.	4d/	.	2f/	.
.	.	.	.	8F\	.	.	.	.	.
4f\	.	4f\	.	8FF/	.	2b-\	.	.	.
.	.	.	.	8F\J	.	.	.	.	.
!	!	!	!	!LO:TX:t=P:problem=mixed beam	!	!	!	!	!
4f\	.	4f\	.	8FF/L	.	.	.	2ccT\	.
.	.	.	.	8F\	.	.	.	.	.
4f\	.	4f\	.	8FF/	.	4a\	.	.	.
.	.	.	.	8F\J	.	.	.	.	.
*	*	*	*	*Xtremolo	*	*	*	*	*
=28	=28	=28	=28	=28	=28	=28	=28	=28	=28
4B-/	.	4f\	.	4BB-/	.	4b-\	.	4b-\	.
4r	.	4r	.	4r	.	16d/LL	.	16b-\LL	.
.	.	.	.	.	.	16e-/	.	16cc\	.
.	.	.	.	.	.	16f/	.	16dd\	.
.	.	.	.	.	.	16e-/JJ	.	16cc\JJ	.
4B-/	.	4f\	.	4BBB-/	.	4d/	.	4b-\	.
4r	.	4r	.	4r	.	16d/LL	.	16b-\LL	.
.	.	.	.	.	.	16e-/	.	16cc\	.
.	.	.	.	.	.	16f/	.	16dd\	.
.	.	.	.	.	.	16e-/JJ	.	16cc\JJ	.
!LO:LB:g=original	!	!	!	!	!	!LO:LB:g=original	!	!LO:LB:g=original	!
=29	=29	=29	=29	=29	=29	=29	=29	=29	=29
!LO:TX:t=1.	!	!	!	!	!	!	!	!	!
*>A1	*>A1	*>A1	*>A1	*>A1	*>A1	*>A1	*>A1	*>A1	*>A1
2B-/	.	2f\	.	2BB-/	.	2d/	.	2b-\	.
4r	.	4r	.	4r	.	4r	.	4r	.
=30:|!	=30:|!	=30:|!	=30:|!	=30:|!	=30:|!	=30:|!	=30:|!	=30:|!	=30:|!
!LO:TX:t=2.	!	!	!	!	!	!	!	!	!
*>A2	*>A2	*>A2	*>A2	*>A2	*>A2	*>A2	*>A2	*>A2	*>A2
2B-/	.	2f\	.	2BB-/	.	2d/	.	2b-\	.
2r	.	2r	.	2r	.	2r	.	2r	.
!	!	!	!	!LO:LB:g=original	!	!	!	!	!
=31!|:	=31!|:	=31!|:	=31!|:	=31!|:	=31!|:	=31!|:	=31!|:	=31!|:	=31!|:
*>B	*>B	*>B	*>B	*>B	*>B	*>B	*>B	*>B	*>B
*clefF4	*	*	*	*	*	*	*	*	*
!	!	!	!LO:DY:a	!	!	!	!LO:DY:a:t=p&colon;	!	!
1BBB-	.	1f	p	8BB-\L	.	1d	p	8.b-T\L	.
.	.	.	.	8F\	.	.	.	.	.
!	!	!	!	!	!	!	!	!	!LO:DY:a
.	.	.	.	.	.	.	.	32a\LL	p
.	.	.	.	.	.	.	.	32b-\JJJ	.
.	.	.	.	8D\	.	.	.	4r	.
.	.	.	.	8F\J	.	.	.	.	.
.	.	.	.	8BB-\L	.	.	.	8.b-T\L	.
.	.	.	.	8F\	.	.	.	.	.
.	.	.	.	.	.	.	.	32an\LL	.
.	.	.	.	.	.	.	.	32b-\JJJ	.
.	.	.	.	8D\	.	.	.	4r	.
.	.	.	.	8F\J	.	.	.	.	.
=32	=32	=32	=32	=32	=32	=32	=32	=32	=32
1EEE-	.	1g	.	8BB-\L	.	1e-	.	8.b-T\L	.
.	.	.	.	8G\	.	.	.	.	.
!	!	!	!	!	!	!	!	!LO:SIC:v:s=32an\LL	!
.	.	.	.	.	.	.	.	32a-\LL	.
.	.	.	.	.	.	.	.	32b-\JJJ	.
.	.	.	.	8E-\	.	.	.	4r	.
.	.	.	.	8G\J	.	.	.	.	.
.	.	.	.	8AA-\L	.	.	.	8.b-T\L	.
.	.	.	.	8G\	.	.	.	.	.
!	!	!	!	!	!	!	!	!LO:SIC:v:s=32an\LL	!
.	.	.	.	.	.	.	.	32a-\LL	.
.	.	.	.	.	.	.	.	32b-\JJJ	.
.	.	.	.	8E-\	.	.	.	4r	.
.	.	.	.	8G\J	.	.	.	.	.
=33	=33	=33	=33	=33	=33	=33	=33	=33	=33
1BBB-	.	1f	.	8BB-\L	.	1d	.	4b-T\	.
.	.	.	.	8A-X\	.	.	.	.	.
.	.	.	.	8F\	.	.	.	4r	.
.	.	.	.	8A-\J	.	.	.	.	.
.	.	.	.	8BB-\L	.	.	.	4b-T\	.
.	.	.	.	8A-\	.	.	.	.	.
.	.	.	.	8F\	.	.	.	4r	.
.	.	.	.	8A-\J	.	.	.	.	.
=34	=34	=34	=34	=34	=34	=34	=34	=34	=34
1EEE-	.	1g	.	8BB-\L	.	1e-	.	4b-T\	.
.	.	.	.	8G\	.	.	.	.	.
.	.	.	.	8E-\	.	.	.	4r	.
.	.	.	.	8G\J	.	.	.	.	.
.	.	.	.	8BB-\L	.	.	.	4b-T\	.
.	.	.	.	8G\	.	.	.	.	.
.	.	.	.	8E-\	.	.	.	4r	.
.	.	.	.	8G\J	.	.	.	.	.
!	!	!	!	!	!	!	!	!LO:LB:g=original	!
=35	=35	=35	=35	=35	=35	=35	=35	=35	=35
4BBB-/	.	4f\	.	4BB-/	.	4d/	.	4b-\	.
4r	.	4r	.	4r	.	4r	.	4bb-\	.
2r	.	2r	.	2r	.	2r	.	4bb-\	.
.	.	.	.	.	.	.	.	4bb-\	.
!	!	!LO:LB:g=original	!	!	!	!	!	!	!
=36	=36	=36	=36	=36	=36	=36	=36	=36	=36
*clefG2	*	*	*	*tremolo	*	*	*	*	*
!	!	!	!	!LO:TX:t=P:problem=mixed beam	!LO:DY:a	!	!	!	!
1G	.	1g	.	8C/L	f	1b-	.	1eeX	.
.	.	.	.	8c\	.	.	.	.	.
.	.	.	.	8C/	.	.	.	.	.
.	.	.	.	8c\J	.	.	.	.	.
!	!	!	!	!LO:TX:t=P:problem=mixed beam	!	!	!	!	!
.	.	.	.	8C/L	.	.	.	.	.
.	.	.	.	8c\	.	.	.	.	.
.	.	.	.	8C/	.	.	.	.	.
.	.	.	.	8c\J	.	.	.	.	.
*	*	*	*	*Xtremolo	*	*	*	*	*
=37	=37	=37	=37	=37	=37	=37	=37	=37	=37
!	!	!	!	!LO:TX:t=P:problem=mixed beam	!	!	!	!	!
1r	.	4f\	.	8FF/L	.	16a-\LL	.	16ff\LL	.
.	.	.	.	.	.	16g\	.	16eeX\	.
.	.	.	.	8F\	.	16a-\	.	16ff\	.
.	.	.	.	.	.	16b-\JJ	.	16gg\JJ	.
.	.	4r	.	8F\	.	8cc\	.	8aa-\	.
.	.	.	.	8F\J	.	8r	.	8r	.
!	!	!	!	!LO:TX:t=P:problem=mixed beam	!	!	!	!	!
.	.	4f\	.	8FF/L	.	16a-\LL	.	16ff\LL	.
.	.	.	.	.	.	16g\	.	16ee\	.
.	.	.	.	8F\	.	16a-\	.	16ff\	.
.	.	.	.	.	.	16b-\JJ	.	16gg\JJ	.
.	.	4r	.	8F\	.	8cc\	.	8aa-\	.
.	.	.	.	8F\J	.	8r	.	8r	.
=38	=38	=38	=38	=38	=38	=38	=38	=38	=38
4f\	.	4f\	.	4FF/	.	4a-\	.	16ff\LL	.
.	.	.	.	.	.	.	.	16ee-\	.
.	.	.	.	.	.	.	.	16ff\	.
.	.	.	.	.	.	.	.	16gg\JJ	.
4r	.	4r	.	4r	.	4r	.	4aa-\	.
2r	.	2r	.	2r	.	2r	.	4aa-\	.
.	.	.	.	.	.	.	.	4aa-\	.
!	!	!	!	!LO:LB:g=original	!	!LO:LB:g=original	!	!	!
=39	=39	=39	=39	=39	=39	=39	=39	=39	=39
*	*	*	*	*tremolo	*	*	*	*	*
!	!LO:DY:a:t=fo	!	!	!LO:TX:t=P:problem=mixed beam	!	!	!LO:DY:a	!LO:TX:a:t=e	!
1B-	f	1f	.	8BB-/L	.	1a-	f	1dd	.
.	.	.	.	8B-\	.	.	.	.	.
.	.	.	.	8BB-/	.	.	.	.	.
.	.	.	.	8B-\J	.	.	.	.	.
!	!	!	!	!LO:TX:t=P:problem=mixed beam	!	!	!	!	!
.	.	.	.	8BB-/L	.	.	.	.	.
.	.	.	.	8B-\	.	.	.	.	.
.	.	.	.	8BB-/	.	.	.	.	.
.	.	.	.	8B-\J	.	.	.	.	.
*	*	*	*	*Xtremolo	*	*	*	*	*
=40	=40	=40	=40	=40	=40	=40	=40	=40	=40
!	!	!	!	!LO:TX:t=P:problem=mixed beam	!	!	!	!	!
4G/	.	4e-\	.	8EE-/L	.	16g/LL	.	16ee-X\LL	.
.	.	.	.	.	.	16f/	.	16dd\	.
.	.	.	.	8E-\	.	16g/	.	16ee-\	.
.	.	.	.	.	.	16a-/JJ	.	16ff\JJ	.
4r	.	4r	.	8E-\	.	8b-\	.	8gg\	.
.	.	.	.	8E-\J	.	8r	.	8r	.
!	!	!	!	!LO:TX:t=P:problem=mixed beam	!	!	!	!	!
4G/	.	4e-\	.	8EE-/L	.	16g/LL	.	16ee-\LL	.
.	.	.	.	.	.	16f/	.	16dd\	.
.	.	.	.	8E-\	.	16g/	.	16ee-\	.
.	.	.	.	.	.	16a-/JJ	.	16ff\JJ	.
4r	.	4r	.	8E-\	.	8b-\	.	8gg\	.
.	.	.	.	8E-\J	.	8r	.	8r	.
=41	=41	=41	=41	=41	=41	=41	=41	=41	=41
!	!	!	!	!	!	!	!LO:DY:a	!	!
4E-/	.	4e-\	.	4EE-/	.	4g-X/	p	16ee-\LL	.
.	.	.	.	.	.	.	.	16dd\	.
.	.	.	.	.	.	.	.	16ee-\	.
.	.	.	.	.	.	.	.	16ff\JJ	.
!	!	!	!	!	!	!	!	!LO:LB:g=original	!
4r	.	4r	.	4r	.	4ee-\	.	4gg-X\	.
2r	.	2r	.	2r	.	4ee-\	.	4gg-\	.
.	.	.	.	.	.	4ee-\	.	4gg-\	.
=42	=42	=42	=42	=42	=42	=42	=42	=42	=42
!LO:TX:a:t=1.	!	!LO:TX:a:t=1.	!	!	!	!	!	!LO:SIC:v:s=1gg-	!
1r	.	1r	.	4BBn/	.	1ee-	.	1gg	.
.	.	.	.	4BB-X/	.	.	.	.	.
.	.	.	.	4AA-/	.	.	.	.	.
.	.	.	.	4AAn/	.	.	.	.	.
!LO:LB:g=original	!	!	!	!	!	!	!	!	!
=43	=43	=43	=43	=43	=43	=43	=43	=43	=43
!	!LO:DY:a	!	!	!LO:TX:t=P:problem=mixed beam	!	!	!	!	!
1B-	p	1f	.	8BB-/L	.	16dd\LL	.	16ff\LL	.
.	.	.	.	.	.	16cc\	.	16ee-\	.
.	.	.	.	8B-\	.	16b-\	.	16dd\	.
.	.	.	.	.	.	16cc\JJ	.	16ee-\JJ	.
.	.	.	.	8B-\	.	8dd\	.	8ff\	.
.	.	.	.	8B-\J	.	8r	.	8r	.
!	!	!	!	!LO:TX:t=P:problem=mixed beam	!	!	!	!	!
.	.	.	.	8BB-/L	.	16dd\LL	.	16ff\LL	.
.	.	.	.	.	.	16cc\	.	16ee-\	.
.	.	.	.	8B-\	.	16b-\	.	16dd\	.
.	.	.	.	.	.	16cc\JJ	.	16ee-\JJ	.
.	.	.	.	8B-\	.	8dd\	.	8ff\	.
.	.	.	.	8B-\J	.	8r	.	8r	.
=44	=44	=44	=44	=44	=44	=44	=44	=44	=44
!	!	!	!	!LO:TX:t=P:problem=mixed beam	!	!	!	!	!
1B-	.	1f	.	8BB-/L	.	16dd\LL	.	16ff\LL	.
.	.	.	.	.	.	16cc\	.	16ee-\	.
.	.	.	.	8B-\	.	16dd\	.	16ff\	.
.	.	.	.	.	.	16ee-\JJ	.	16gg\JJ	.
.	.	.	.	8B-\	.	8ff\	.	8aa-\	.
.	.	.	.	8B-\J	.	8r	.	8r	.
!	!	!	!	!LO:TX:t=P:problem=mixed beam	!	!	!	!	!
.	.	.	.	8BB-/L	.	16dd\LL	.	16ff\LL	.
.	.	.	.	.	.	16cc\	.	16ee-\	.
.	.	.	.	8B-\	.	16dd\	.	16ff\	.
.	.	.	.	.	.	16ee-\JJ	.	16gg\JJ	.
.	.	.	.	8B-\	.	8ff\	.	8aa-\	.
.	.	.	.	8B-\J	.	8r	.	8r	.
!	!	!	!	!	!	!LO:LB:g=original	!	!	!
=45	=45	=45	=45	=45	=45	=45	=45	=45	=45
!	!LO:DY:a	!	!	!LO:TX:t=P:problem=mixed beam	!LO:DY:a	!	!LO:DY:a	!	!
1e-	f	1g	.	8E-\L	f	8ee-\L	f	8.gg\L	.
.	.	.	.	8EE-/	.	8b-\	.	.	.
.	.	.	.	.	.	.	.	16ee-\Jk	.
.	.	.	.	8GG/	.	8b-\	.	4r	.
.	.	.	.	8BB-/J	.	8b-\J	.	.	.
*	*	*	*	*	*	*tremolo	*	*	*
.	.	.	.	8E-\L	.	8b-\L	.	8.bb-\L	.
.	.	.	.	8G\	.	8b-\	.	.	.
.	.	.	.	.	.	.	.	16gg\Jk	.
.	.	.	.	8B-\	.	8b-\	.	4r	.
.	.	.	.	8G\J	.	8b-\J	.	.	.
=46	=46	=46	=46	=46	=46	=46	=46	=46	=46
1B-	.	1f	f	8A-\L	.	8b-\L	.	8.ff\L	.
.	.	.	.	8F\	.	8b-\	.	.	.
.	.	.	.	.	.	.	.	16dd\Jk	.
.	.	.	.	8D\	.	8b-\	.	4r	.
.	.	.	.	8BB-\J	.	8b-\J	.	.	.
!	!	!	!	!LO:LB:g=original	!	!	!	!	!
!	!	!	!	!LO:TX:a:i:t=Solo	!	!	!	!LO:LB:g=original	!
.	.	.	.	8D\L	.	8b-\L	.	8.aa-\L	.
.	.	.	.	8F\	.	8b-\	.	.	.
.	.	.	.	.	.	.	.	16ff\Jk	.
.	.	.	.	8A-\	.	8b-\	.	4r	.
.	.	.	.	8F\J	.	8b-\J	.	.	.
=47	=47	=47	=47	=47	=47	=47	=47	=47	=47
!	!LO:DY:a	!	!	!LO:TX:t=P:problem=mixed beam	!LO:DY:a	!	!LO:DY:a	!LO:TX:t=P:problem=takty nr 48-49 zapisane jako repetycja	!
1E-	p	1g	p	8E-\L	p	8b-\L	p	8.gg\Lyy	.
.	.	.	.	8EE-/	.	8b-\	.	.	.
.	.	.	.	.	.	.	.	16ee-\Jkyy	.
.	.	.	.	8GG/	.	8b-\	.	4ryy	.
.	.	.	.	8BB-/J	.	8b-\J	.	.	.
.	.	.	.	8E-\L	.	8b-\L	.	8.bb-\Lyy	.
.	.	.	.	8G\	.	8b-\	.	.	.
.	.	.	.	.	.	.	.	16gg\Jkyy	.
.	.	.	.	8B-\	.	8b-\	.	4ryy	.
.	.	.	.	8G\J	.	8b-\J	.	.	.
=48	=48	=48	=48	=48	=48	=48	=48	=48	=48
1B-	.	1f	.	8A-\L	.	8b-\L	.	8.ff\Lyy	.
.	.	.	.	8F|\	.	8b-\	.	.	.
.	.	.	.	.	.	.	.	16dd\Jkyy	.
.	.	.	.	8D\	.	8b-\	.	4ryy	.
.	.	.	.	8BB-\J	.	8b-\J	.	.	.
!	!	!	!	!LO:TX:t=P:problem=mixed beam	!	!	!	!	!
.	.	.	.	8D\L	.	8b-\L	.	8.aa-\Lyy	.
.	.	.	.	8F\	.	8b-\	.	.	.
.	.	.	.	.	.	.	.	16ff\Jkyy	.
.	.	.	.	8B-\	.	8b-\	.	4ryy	.
.	.	.	.	8D 8BB-/J	.	8b-\J	.	.	.
*	*	*	*	*	*	*Xtremolo	*	*	*
=49	=49	=49	=49	=49	=49	=49	=49	=49	=49
!	!LO:DY:a	!	!	!	!	!	!LO:DY:a	!	!LO:DY:a
4G/	f	4e-\	f	4E-\	.	8g\L	f	8ee-\L	f
.	.	.	.	.	.	8b-\	.	8gg\	.
4B-/	.	4f\	.	4BB-/	.	8a-\	.	8ff\	.
.	.	.	.	.	.	8f\J	.	8dd\J	.
!	!	!	!	!	!LO:DY:a:t=fo	!	!	!	!
4e-\	.	4g\	.	4EE-/	f	8g\L	.	8ee-\L	.
.	.	.	.	.	.	8b-\	.	8gg\	.
4B-/	.	4f\	.	4BB-/	.	8a-\	.	8ff\	.
.	.	.	.	.	.	8f\J	.	8dd\J	.
=50	=50	=50	=50	=50	=50	=50	=50	=50	=50
2G/	.	2e-\	.	4E-\	.	8g\L	.	8ee-\L	.
.	.	.	.	.	.	8b-\J	.	8gg\J	.
.	.	.	.	4EE-/	.	2g/	.	2b-\	.
4r	.	4r	.	4GG/	.	.	.	.	.
4B-/	.	4f\	.	4BB-/	.	4f/	.	4a-\	.
=51	=51	=51	=51	=51	=51	=51	=51	=51	=51
2G/	.	2e-\	.	4r	.	8e-/L	.	8g\L	.
.	.	.	.	.	.	8g/J	.	8b-\J	.
.	.	.	.	4EE-/	.	2B-/	.	2g/	.
4r	.	4r	.	4GG/	.	.	.	.	.
4B-/	.	4f\	.	4BB-/	.	4A-/	.	4f/	.
=52	=52	=52	=52	=52	=52	=52	=52	=52	=52
2G/	.	2e-\	.	4r	.	8G/L	.	8e-/L	.
.	.	.	.	.	.	8B-/J	.	8g/J	.
.	.	.	.	4EE-/	.	2G/	.	2B-/	.
4r	.	4r	.	4GG/	.	.	.	.	.
4B-/	.	4f\	.	4BB-/	.	4F/	.	4A-/	.
!	!	!	!	!	!	!LO:LB:g=original	!	!	!
=53	=53	=53	=53	=53	=53	=53	=53	=53	=53
2G/	.	2e-\	.	4EE-/	.	8E-/L	.	8G/L	.
.	.	.	.	.	.	8G/	.	8B-/	.
.	.	.	.	4r	.	8B-/	.	8d/	.
.	.	.	.	.	.	8e-/J	.	8f/J	.
2r	.	2r	.	2r	.	8g\L	.	8b-\L	.
.	.	.	.	.	.	8b-\	.	8ee-\	.
.	.	.	.	.	.	8ee-\	.	8gg\	.
.	.	.	.	.	.	8gg\J	.	8bb-\J	.
!	!	!	!	!	!	!	!	!LO:LB:g=original	!
=54	=54	=54	=54	=54	=54	=54	=54	=54	=54
2g\	.	2b-\	.	4r	.	2gg\	.	2bb-\	.
.	.	.	.	4E-\	.	.	.	.	.
8qqg/	.	8qqb-/	.	.	.	8qqgg/	.	.	.
4f\	.	4a-\	.	4F\	.	4ff\	.	4aa-\	.
8e-\L	.	8g\L	.	4BB-/	.	8ee-\L	.	8gg\L	.
8f\J	.	8a-\J	.	.	.	8ff\J	.	8aa-\J	.
=55	=55	=55	=55	=55	=55	=55	=55	=55	=55
.	.	8qqa-/	.	.	.	8qqff/	.	.	.
!	!	!	!	!LO:TX:t=P:problem=mixed beam	!	!	!	!	!
2e-\	.	2g\	.	8E-\L	.	2ee-\	.	2gg\	.
.	.	.	.	8EE-/	.	.	.	.	.
.	.	.	.	8GG/	.	.	.	.	.
.	.	.	.	8BB-/J	.	.	.	.	.
!	!	!	!	!LO:LB:g=original	!	!	!	!	!
2r	.	2r	.	4E-\	.	4r	.	4r	.
!	!	!	!	!	!	!LO:TX:a:i:t=Dolce	!	!	!
.	.	.	.	4r	.	4g/	.	4ee-\	.
!LO:LB:g=original	!	!LO:LB:g=original	!	!	!	!	!	!	!
=56	=56	=56	=56	=56	=56	=56	=56	=56	=56
!	!LO:DY:a	!	!LO:DY:a	!	!	!	!	!LO:TX:a:i:t=dolce	!
1C	p	1e-	p	4r	.	4g/	.	8ee-\L	.
.	.	.	.	.	.	.	.	8dd-X\J	.
.	.	.	.	4E-\	.	2b-\	.	2dd-\	.
.	.	.	.	4G\	.	.	.	.	.
.	.	.	.	4A-\	.	4a-\	.	4cc\	.
=57	=57	=57	=57	=57	=57	=57	=57	=57	=57
1C	.	1e-	.	4r	.	8cc\L	.	8ee-\L	.
.	.	.	.	.	.	8a-\J	.	8cc\J	.
.	.	.	.	4AA-/	.	2a-\	.	2cc\	.
.	.	.	.	4E-\	.	.	.	.	.
.	.	.	.	4EE-/	.	4g\	.	4b-\	.
=58	=58	=58	=58	=58	=58	=58	=58	=58	=58
!	!LO:DY:a	!	!	!	!	!	!	!	!
2B-/	f	2f\	.	4r	.	4f/	.	4a-\	.
!	!	!	!	!	!	!	!	!LO:TX:t=P:problem=mixed beam	!
.	.	.	.	4BB-/	.	8a-/L	.	8ff\L	.
.	.	.	.	.	.	8f/J	.	8a-/J	.
2e-\	.	2g\	.	4E-\	.	4e-/	.	4g/	.
!	!	!	!	!	!	!	!	!LO:TX:t=P:problem=mixed beam	!
.	.	.	.	4EE-/	.	8g/L	.	8ee-\L	.
.	.	.	.	.	.	8e-/J	.	8g/J	.
=59	=59	=59	=59	=59	=59	=59	=59	=59	=59
4e-\	.	4g\	.	4BB-/	.	4e-/	.	4g/	.
4B-/	.	4f\	.	4B-\	.	4d/	.	4f/	.
4r	.	4r	.	4BB-/	.	2r	.	2r	.
4BB-/	.	4B-/	.	4r	.	.	.	.	.
=60	=60	=60	=60	=60	=60	=60	=60	=60	=60
!	!LO:DY:a	!	!	!	!	!	!	!LO:TX:a:t=1.	!
2G/	p	2e-\	.	8r	.	4g/	.	1r	.
!	!	!	!	!	!LO:DY:a	!	!	!	!
.	.	.	.	8EE-/L	p	.	.	.	.
!	!	!	!	!LO:TX:a:i:t=Solo	!	!	!	!	!
.	.	.	.	8GG/	.	4r	.	.	.
.	.	.	.	8BB-/J	.	.	.	.	.
2e-\	.	2g\	.	8E-\L	.	2r	.	.	.
.	.	.	.	8BB-\	.	.	.	.	.
.	.	.	.	8GG\	.	.	.	.	.
.	.	.	.	8BB-\J	.	.	.	.	.
!	!	!	!	!	!	!LO:LB:g=original	!	!	!
=61	=61	=61	=61	=61	=61	=61	=61	=61	=61
!	!	!	!	!	!	!LO:TX:a:t=1.	!	!	!
4g\	.	8b-\L	.	4EE-/	.	1r	.	4b-\	.
.	.	8b-\J	.	.	.	.	.	.	.
4r	.	8b-\L	.	4r	.	.	.	4r	.
.	.	8b-\J	.	.	.	.	.	.	.
*	*	*tremolo	*	*	*	*	*	*	*
2r	.	8b-\L	.	2r	.	.	.	2r	.
.	.	8b-\	.	.	.	.	.	.	.
.	.	8b-\	.	.	.	.	.	.	.
.	.	8b-\J	.	.	.	.	.	.	.
*	*	*Xtremolo	*	*	*	*	*	*	*
=62	=62	=62	=62	=62	=62	=62	=62	=62	=62
*	*	*	*	*tuplet	*	*	*	*tuplet	*
!	!LO:DY:a	!	!LO:DY:a	!LO:TUP:a:problem=klamra łukowa, łuczek zamiast numeru	!	!LO:TUP:a:problem=klamra łukowa, łuczek zamiast numeru	!	!LO:TUP:a:problem=klamra łukowa, łuczek zamiast numeru	!
1B-	f	1b-	f	12D\L	.	12f/L	.	12a-\L	.
.	.	.	.	12E-\	.	12g/	.	12g\	.
.	.	.	.	12D\J	.	12f/J	.	12a-\J	.
.	.	.	.	8D'\L	.	8f|/L	.	8a-'\L	.
.	.	.	.	8D'\J	.	8f|/J	.	8a-'\J	.
*	*	*	*	*tremolo	*	*tremolo	*	*tremolo	*
!	!	!	!	!LO:TX:a:t=....	!	!LO:TX:b:t=....	!	!LO:TX:a:t=....	!
.	.	.	.	8D'\L	.	8f'/L	.	8a-'\L	.
.	.	.	.	8D'\	.	8f'/	.	8a-'\	.
.	.	.	.	8D'\	.	8f'/	.	8a-'\	.
.	.	.	.	8D'\J	.	8f'/J	.	8a-'\J	.
*	*	*	*	*Xtremolo	*	*Xtremolo	*	*Xtremolo	*
!	!	!	!	!	!	!	!	!LO:LB:g=original	!
=63	=63	=63	=63	=63	=63	=63	=63	=63	=63
*	*	*Xtuplet	*	*	*	*	*	*	*
!	!	!LO:TUP:a:problem=klamra łukowa	!	!	!	!	!	!	!
4e-\	.	12b-\L	p	4E-\	.	4e-	.	4g/	.
.	.	12cc\	.	.	.	.	.	.	.
.	.	12b-\J	.	.	.	.	.	.	.
4r	.	8b-\L	.	4r	.	4r	.	4r	.
.	.	8b-\J	.	.	.	.	.	.	.
*	*	*tremolo	*	*	*	*	*	*	*
2r	.	8b-\L	.	2r	.	2r	.	2r	.
.	.	8b-\	.	.	.	.	.	.	.
.	.	8b-\	.	.	.	.	.	.	.
.	.	8b-\J	.	.	.	.	.	.	.
*	*	*Xtremolo	*	*	*	*	*	*	*
=64	=64	=64	=64	=64	=64	=64	=64	=64	=64
!	!	!	!	!LO:TUP:a:problem=klamra łukowa, łuczek zamiast numeru	!	!LO:TUP:b:problem=klamra łukowa, łuczek zamiast numeru	!	!LO:TUP:a:problem=klamra łukowa, łuczek zamiast numeru	!
1B-	.	1b-	f	12D\L	.	12f/L	.	12a-\L	.
.	.	.	.	12E-\	.	12g/	.	12g\	.
.	.	.	.	12D\J	.	12f/J	.	12a-\J	.
.	.	.	.	8D\L	.	8f|/L	.	8a-'\L	.
.	.	.	.	8D\J	.	8f|/J	.	8a-'\J	.
*	*	*	*	*tremolo	*	*tremolo	*	*tremolo	*
!	!	!	!	!	!	!LO:TX:b:t=....	!	!LO:TX:a:t=....	!
.	.	.	.	8D\L	.	8f'/L	.	8a-'\L	.
.	.	.	.	8D\	.	8f'/	.	8a-'\	.
.	.	.	.	8D\	.	8f'/	.	8a-'\	.
.	.	.	.	8D\J	.	8f'/J	.	8a-'\J	.
*	*	*	*	*Xtremolo	*	*Xtremolo	*	*Xtremolo	*
!	!	!	!	!LO:LB:g=original	!	!	!	!	!
=65	=65	=65	=65	=65	=65	=65	=65	=65	=65
!	!	!	!	!	!LO:DY:a	!	!	!	!
4G/	.	12b-\L	.	4E-\	f	4e-/	.	4g\	.
.	.	12cc\	.	.	.	.	.	.	.
.	.	12b-\J	.	.	.	.	.	.	.
4G/	.	8b-\L	.	4E-\	.	4g/	.	4ee-\	.
.	.	8b-\J	.	.	.	.	.	.	.
4G/	.	8ee-\L	.	4GG/	.	4.b-\	.	8ee-\L	.
.	.	8b-\	.	.	.	.	.	8b-\	.
4E-/	.	8g\	.	4GG/	.	.	.	8g\	.
.	.	8e-\J	.	.	.	8g\	.	8e-\J	.
=66	=66	=66	=66	=66	=66	=66	=66	=66	=66
2E-/	.	2e-|\	.	4AA-/	.	4e-/	.	4c/	.
.	.	.	.	4AA-/	.	4e-/	.	4cc\	.
2r	.	2r	.	4AA-/	.	8e-/L	.	8cc\L	.
.	.	.	.	.	.	8c/	.	8a-\	.
.	.	.	.	4AA-/	.	8B-/	.	8g\	.
.	.	.	.	.	.	8A-/J	.	8f\J	.
=67	=67	=67	=67	=67	=67	=67	=67	=67	=67
*	*	*	*	*tremolo	*	*	*	*	*
!	!	!	!	!LO:TX:t=P:problem=mixed beam	!	!	!	!	!
2e-\	.	2g\	.	8BB-/L	.	4G/	.	2B-/	.
.	.	.	.	8B-\	.	.	.	.	.
.	.	.	.	8BB-/	.	2ee-\	.	.	.
.	.	.	.	8B-\J	.	.	.	.	.
!	!	!	!	!LO:TX:t=P:problem=mixed beam	!	!	!	!	!
2B-/	.	2f\	.	8BB-/L	.	.	.	2ffT\	.
.	.	.	.	8B-\	.	.	.	.	.
.	.	.	.	8BB-/	.	4dd\	.	.	.
.	.	.	.	8B-\J	.	.	.	.	.
*	*	*	*	*Xtremolo	*	*	*	*	*
=68	=68	=68	=68	=68	=68	=68	=68	=68	=68
2G/	.	2e-\	.	4E-\	.	2ee-\	.	2ee-\	.
.	.	.	.	8BB-/L	.	.	.	.	.
.	.	.	.	8GG/J	.	.	.	.	.
2r	.	2r	.	4EE-/	.	4r	.	4r	.
!	!	!	!	!	!	!LO:LB:g=original	!LO:DY:a	!	!
.	.	.	.	4r	.	4G/	p	8B-/L	.
.	.	.	.	.	.	.	.	8e-/J	.
=69	=69	=69	=69	=69	=69	=69	=69	=69	=69
!	!	!	!LO:DY:a	!	!LO:DY:a	!	!	!	!
1BB-	.	1B-	p	1BB-	p	8G/L	.	8e-/L	.
.	.	.	.	.	.	8F/	.	8d/	.
.	.	.	.	.	.	8F/	.	8d/	.
.	.	.	.	.	.	8A-/J	.	8f/J	.
.	.	.	.	.	.	8A-/L	.	8f/L	.
.	.	.	.	.	.	8G/	.	8e-/	.
.	.	.	.	.	.	8G/	.	8e-/	.
.	.	.	.	.	.	8e-/J	.	8g/J	.
!LO:LB:g=original	!	!	!	!	!	!	!	!	!
=70	=70	=70	=70	=70	=70	=70	=70	=70	=70
1BB-	.	1B-	.	1BB-	.	8e-/L	.	8g/L	.
.	.	.	.	.	.	8d/	.	8f/	.
.	.	.	.	.	.	8d/	.	8f/	.
.	.	.	.	.	.	8f/J	.	8a-/J	.
.	.	.	.	.	.	8f/L	.	8a-/L	.
.	.	.	.	.	.	8e-/	.	8g/	.
.	.	.	.	.	.	8e-/	.	8g/	.
.	.	.	.	.	.	8g/J	.	8b-/J	.
!	!	!	!	!	!	!	!	!LO:LB:g=original	!
=71	=71	=71	=71	=71	=71	=71	=71	=71	=71
1BB-	.	1B-	.	1BB-	.	8g/L	.	8cc\L	.
.	.	.	.	.	.	8f/	.	8a-\	.
.	.	.	.	.	.	8f/	.	8a-\	.
.	.	.	.	.	.	8a-/J	.	8cc\J	.
.	.	.	.	.	.	8a-/L	.	8cc\L	.
.	.	.	.	.	.	8g/	.	8b-\	.
.	.	.	.	.	.	8g/	.	8b-\	.
!	!	!	!	!	!	!	!LO:DY:a	!	!
.	.	.	.	.	.	8f/J	f	8dd\J	.
=72	=72	=72	=72	=72	=72	=72	=72	=72	=72
*	*	*	*	*tremolo	*	*	*	*	*
!	!	!	!	!LO:TX:t=P:problem=mixed beam	!LO:DY:a:t=fo	!	!	!	!
2E-/	.	4B-\	.	8EE-/L	f	2g\	.	1ee-	f
.	.	.	.	8E-\	.	.	.	.	.
.	.	4e-\	.	8EE-/	.	.	.	.	.
.	.	.	.	8E-\J	.	.	.	.	.
!	!	!	!	!LO:TX:t=P:problem=mixed beam	!	!	!	!	!
2G/	.	2e-\	.	8GG/L	.	2b-M\	.	.	.
.	.	.	.	8E-\	.	.	.	.	.
.	.	.	.	8GG/	.	.	.	.	.
.	.	.	.	8E-\J	.	.	.	.	.
!	!	!LO:LB:g=original	!	!	!	!	!	!	!
=73	=73	=73	=73	=73	=73	=73	=73	=73	=73
!	!	!	!	!LO:TX:t=P:problem=mixed beam	!	!	!	!	!
1E-	.	1e-	.	8AA-/L	.	2a-\	.	2cc\	.
.	.	.	.	8E-\	.	.	.	.	.
.	.	.	.	8AA-/	.	.	.	.	.
.	.	.	.	8E-\J	.	.	.	.	.
!	!	!	!	!LO:TX:t=P:problem=mixed beam	!	!	!	!	!
.	.	.	.	8AA-/L	.	2ccM\	.	2aa-\	.
.	.	.	.	8A-\	.	.	.	.	.
.	.	.	.	8AA-/	.	.	.	.	.
.	.	.	.	8A-\J	.	.	.	.	.
*	*	*	*	*Xtremolo	*	*	*	*	*
=74	=74	=74	=74	=74	=74	=74	=74	=74	=74
!LO:TX:a:t=1.	!	!	!	!	!	!	!	!	!
1r	.	4f\	.	4AA-/	.	4b-\	.	16ff\LL	.
.	.	.	.	.	.	.	.	16eeX\	.
.	.	.	.	.	.	.	.	16ff\	.
.	.	.	.	.	.	.	.	16gg\JJ	.
.	.	4r	.	4r	.	16ff\LL	.	16aa-\LL	.
.	.	.	.	.	.	16eeX\	.	16gg\	.
.	.	.	.	.	.	16ff\	.	16aa-\	.
.	.	.	.	.	.	16gg\JJ	.	16bb-\JJ	.
!	!	!	!	!LO:LB:g=original	!	!	!	!	!
*	*	*	*	*tremolo	*	*	*	*	*
!	!	!	!	!LO:TX:t=P:problem=mixed beam	!	!	!	!	!
.	.	2r	.	8AA-/L	.	8aa-\L	.	8ccc\L	.
.	.	.	.	8A-\	.	8cc\	.	8aa-\	.
.	.	.	.	8AA-/	.	8b-\	.	8gg\	.
.	.	.	.	8A-\J	.	8a-\J	.	8ff\J	.
=75	=75	=75	=75	=75	=75	=75	=75	=75	=75
!	!	!LO:SIC:v:s=4g\	!	!LO:TX:t=P:problem=mixed beam	!	!	!	!	!
4e-\	.	4a-\	.	8BB-/L	.	4g/	.	2b-\	.
.	.	.	.	8B-\	.	.	.	.	.
!	!	!LO:SIC:v:s=4g\	!	!	!	!	!	!	!
4e-\	.	4a-\	.	8BB-/	.	2ee-\	.	.	.
.	.	.	.	8B-\J	.	.	.	.	.
!	!	!	!	!LO:TX:t=P:problem=mixed beam	!	!	!	!	!
4B-/	.	4f\	.	8BB-/L	.	.	.	2ffT\	.
.	.	.	.	8B-\	.	.	.	.	.
4B-/	.	4f\	.	8BB-/	.	4dd\	.	.	.
.	.	.	.	8B-\J	.	.	.	.	.
*	*	*	*	*Xtremolo	*	*	*	*	*
=76	=76	=76	=76	=76	=76	=76	=76	=76	=76
4G/	.	4e-\	.	4E-\	.	4ee-\	.	4ee-\	.
4r	.	4r	.	4r	.	4r	.	16ee-\LL	.
.	.	.	.	.	.	.	.	16ff\	.
.	.	.	.	.	.	.	.	16gg\	.
.	.	.	.	.	.	.	.	16ff\JJ	.
4G/	.	4e-\	.	4EE-/	.	4g/	.	4ee-\	.
4r	.	4r	.	4r	.	4ryy	.	16ee-\LL	.
.	.	.	.	.	.	.	.	16ff\	.
.	.	.	.	.	.	.	.	16gg\	.
.	.	.	.	.	.	.	.	16ff\JJ	.
=77	=77	=77	=77	=77	=77	=77	=77	=77	=77
2G/	.	2e-\	.	2EE-/	.	2g/	.	2ee-\	.
!	!	!	!	!LO:TX:b:i:t=Verte Menueto	!	!	!	!	!
2r	.	2r	.	2r	.	2r	.	2r	.
==:|!	==:|!	==:|!	==:|!	==:|!	==:|!	==:|!	==:|!	==:|!	==:|!
*-	*-	*-	*-	*-	*-	*-	*-	*-	*-
!!!system-decoration: [(g1)][(g2)]
!!!RDF**kern: > = above
!!!RDF**kern: < = below
!!!RDF**kern: | = vertical stroke
!!!ENC: Marcin Jachim
!!!END: 2021-06-16
!!!ENC: Andrzej Kubiczek
!!!END: 2021-06-29
!!!YEC: Copyright 2022 Narodowy Instytut Fryderyka Chopina (https://polishscores.org)
!!!YEM: License CC-BY-4.0 (https://creativecommons.org/licenses/by/4.0)
